src/assets/images/mind.svg

<svg fill="none" height="40" viewBox="0 0 40 40" width="40" xmlns="http://www.w3.org/2000/svg" xmlns:xlink="http://www.w3.org/1999/xlink"><clipPath id="a"><path d="m18 3h22v22h-22z"/></clipPath><path d="m30.8098 38.6842c0-1.9171-.3658-3.9523.0915-5.778.5717-2.2791 1.5322-4.5812 2.8395-6.5288 4.5355-6.7613 1.5283-15.1501-2.7518-18.37066-8.4764-6.38018-20.5584-2.10767-23.10818 8.11436-.49929 2.0048-1.89424 3.8037-2.98047 5.637-1.39114 2.3477-1.26156 2.9728 1.03287 4.4173.46498.2935 1.01382.8271 1.08242 1.3111.88423 6.4183 1.36827 6.9405 7.60366 7.7027v3.4988" fill="#5a57c6"/><g clip-path="url(#a)"><path d="m37.7788 16.1302c-.4274-.1682-.7941-.4616-1.052-.8417s-.395-.8292-.3934-1.2885v-.0128c-.0023-.4593.134-.9087.3913-1.2892.2572-.3806.6234-.6746 1.0505-.8436.5762-.2302.8634-.89.6401-1.471-.3835-.99751-.9235-1.92755-1.5997-2.75513-.1898-.23211-.4632-.38039-.7613-.41291-.298-.03253-.5969.05331-.8323.23903-.36.28425-.7969.45394-1.2544.48714-.4574.03319-.9143-.07164-1.3116-.30095-.3967-.22725-.716-.56839-.9166-.97923-.2006-.41085-.2732-.87245-.2084-1.32504.0428-.29888-.0337-.60262-.2131-.84548-.1795-.24286-.4473-.4053-.7456-.45217-1.0528-.16442-2.125-.16268-3.1774.00515-.1479.02343-.2896.07601-.4171.15469-.1274.07868-.2379.18189-.3251.30365-.1759.24289-.25.54486-.2066.84161.0462.3249.0223.65595-.0703.9708-.0926.31484-.2517.60614-.4666.85423-.2148.24808-.4804.44716-.7788.58381-.2984.13664-.6226.20765-.9508.20824-.514-.00063-1.0131-.17299-1.418-.4897-.2359-.18529-.5352-.27046-.8333-.23716-.2982.0333-.5713.18241-.7605.4152-.674.82923-1.2114 1.76059-1.5922 2.75902-.2217.5812.0672 1.2404.6446 1.4691.4266.1692.7926.4626 1.0506.8422s.3961.8279.3965 1.2868c.0004.459-.137.9075-.3944 1.2875-.2573.38-.6228.674-1.0492.844-.5763.2292-.8641.8893-.6413 1.4704.3826.9979.9218 1.9284 1.5974 2.7566.0941.1161.2103.2123.3419.2832.1315.0709.2758.115.4245.1297.2977.0308.5957-.0556.8307-.2409.3599-.2823.796-.4505 1.2522-.4829.4562-.0325.9117.0722 1.3079.3007.3962.2284.715.5702.9155.9813.2004.4111.2733.8727.2093 1.3256-.0431.2988.0333.6027.2125.8457.1793.243.447.4057.7453.4528 1.0504.1649 2.1201.1644 3.1704-.0015.2982-.0474.5658-.2103.7449-.4535.179-.2432.2551-.5471.2118-.846-.0657-.4525.006-.9144.2059-1.3257.1998-.4113.5186-.7531.915-.9811.3957-.2307.8516-.337 1.3085-.305.4569.0319.8936.2006 1.2533.484.2354.1853.5337.2715.8316.2402.1487-.0149.293-.0591.4244-.1301.1315-.071.2476-.1674.3416-.2835.6747-.8286 1.213-1.7595 1.5946-2.7575.2221-.5815-.0662-1.2408-.6428-1.4701zm-6.0287-2.1302c0 1.5163-1.2336 2.75-2.75 2.75s-2.75-1.2337-2.75-2.75c0-1.5164 1.2336-2.75 2.75-2.75s2.75 1.2336 2.75 2.75z" fill="#edecff" stroke="#5a57c6" stroke-width="2"/></g></svg>

<svg width="40" height="40" viewBox="0 0 40 40" fill="none" xmlns="http://www.w3.org/2000/svg">
<path d="M30.8098 38.6842C30.8098 36.7671 30.444 34.7319 30.9013 32.9062C31.473 30.6271 32.4335 28.325 33.7408 26.3774C38.2763 19.6161 35.2691 11.2273 30.989 8.00674C22.5126 1.62656 10.4306 5.89907 7.88082 16.1211C7.38153 18.1259 5.98658 19.9248 4.90035 21.7581C3.50921 24.1058 3.63879 24.7309 5.93322 26.1754C6.3982 26.4689 6.94704 27.0025 7.01564 27.4865C7.89987 33.9048 8.38391 34.427 14.6193 35.1892C14.6193 36.2945 14.6193 37.4189 14.6193 38.688" fill="#5A57C6"/>
<g clip-path="url(#clip0_473_237)">
<path d="M37.7788 16.1302C37.3514 15.962 36.9847 15.6686 36.7268 15.2885C36.4689 14.9084 36.3318 14.4593 36.3334 14V13.9872C36.3311 13.5279 36.4674 13.0785 36.7247 12.698C36.9819 12.3174 37.3481 12.0234 37.7752 11.8544C38.3514 11.6242 38.6386 10.9644 38.4153 10.3834C38.0318 9.38589 37.4918 8.45585 36.8156 7.62827C36.6258 7.39616 36.3524 7.24788 36.0543 7.21536C35.7563 7.18283 35.4574 7.26867 35.222 7.45439C34.862 7.73864 34.4251 7.90833 33.9676 7.94153C33.5102 7.97472 33.0533 7.86989 32.656 7.64058C32.2593 7.41333 31.94 7.07219 31.7394 6.66135C31.5388 6.2505 31.4662 5.7889 31.531 5.33631C31.5738 5.03743 31.4973 4.73369 31.3179 4.49083C31.1384 4.24797 30.8706 4.08553 30.5723 4.03866C29.5195 3.87424 28.4473 3.87598 27.3949 4.04381C27.247 4.06724 27.1053 4.11982 26.9778 4.1985C26.8504 4.27718 26.7399 4.38039 26.6527 4.50215C26.4768 4.74504 26.4027 5.04701 26.4461 5.34376C26.4923 5.66866 26.4684 5.99971 26.3758 6.31456C26.2832 6.6294 26.1241 6.9207 25.9092 7.16879C25.6944 7.41687 25.4288 7.61595 25.1304 7.7526C24.832 7.88924 24.5078 7.96025 24.1796 7.96084C23.6656 7.96021 23.1665 7.78785 22.7616 7.47114C22.5257 7.28585 22.2264 7.20068 21.9283 7.23398C21.6301 7.26728 21.357 7.41639 21.1678 7.64918C20.4938 8.47841 19.9564 9.40977 19.5756 10.4082C19.3539 10.9894 19.6428 11.6486 20.2202 11.8773C20.6468 12.0465 21.0128 12.3399 21.2708 12.7195C21.5288 13.0991 21.6669 13.5474 21.6673 14.0063C21.6677 14.4653 21.5303 14.9138 21.2729 15.2938C21.0156 15.6738 20.6501 15.9678 20.2237 16.1378C19.6474 16.367 19.3596 17.0271 19.5824 17.6082C19.965 18.6061 20.5042 19.5366 21.1798 20.3648C21.2739 20.4809 21.3901 20.5771 21.5217 20.648C21.6532 20.7189 21.7975 20.763 21.9462 20.7777C22.2439 20.8085 22.5419 20.7221 22.7769 20.5368C23.1368 20.2545 23.5729 20.0863 24.0291 20.0539C24.4853 20.0214 24.9408 20.1261 25.337 20.3546C25.7332 20.583 26.052 20.9248 26.2525 21.3359C26.4529 21.747 26.5258 22.2086 26.4618 22.6615C26.4187 22.9603 26.4951 23.2642 26.6743 23.5072C26.8536 23.7502 27.1213 23.9129 27.4196 23.96C28.47 24.1249 29.5397 24.1244 30.59 23.9585C30.8882 23.9111 31.1558 23.7482 31.3349 23.505C31.5139 23.2618 31.59 22.9579 31.5467 22.659C31.481 22.2065 31.5527 21.7446 31.7526 21.3333C31.9524 20.922 32.2712 20.5802 32.6676 20.3522C33.0633 20.1215 33.5192 20.0152 33.9761 20.0472C34.433 20.0791 34.8697 20.2478 35.2294 20.5312C35.4648 20.7165 35.7631 20.8027 36.061 20.7714C36.2097 20.7565 36.354 20.7123 36.4854 20.6413C36.6169 20.5703 36.733 20.4739 36.827 20.3578C37.5017 19.5292 38.04 18.5983 38.4216 17.6003C38.6437 17.0188 38.3554 16.3595 37.7788 16.1302ZM31.7501 14C31.7501 15.5163 30.5165 16.75 29.0001 16.75C27.4837 16.75 26.2501 15.5163 26.2501 14C26.2501 12.4836 27.4837 11.25 29.0001 11.25C30.5165 11.25 31.7501 12.4836 31.7501 14Z" fill="#EDECFF" stroke="#5A57C6" stroke-width="2"/>
</g>
<defs>
<clipPath id="clip0_473_237">
<rect width="22" height="22" fill="white" transform="translate(18 3)"/>
</clipPath>
</defs>
</svg>
